X: 112
T: Hong xiuying
L: 1/8
M: 2/4
K: G
d eA2 [I:setbarnb 1]| 
d eA2 | 
d d e d | 
d GA2 | 
d d e d | 
c e d d | 
E GA2 | 
c> A G B | 
A/ G/ ED2 |]

@@@ Tune index: 8986
